public/icons/github.svg

<?xml version="1.0" encoding="UTF-8" standalone="no" ?>
<!DOCTYPE svg PUBLIC "-//W3C//DTD SVG 1.1//EN" "http://www.w3.org/Graphics/SVG/1.1/DTD/svg11.dtd">
<svg xmlns="http://www.w3.org/2000/svg" xmlns:xlink="http://www.w3.org/1999/xlink" version="1.1" width="1080" height="1080" viewBox="0 0 1080 1080" xml:space="preserve">
<desc>Created with Fabric.js 5.2.4</desc>
<defs>
</defs>
<rect x="0" y="0" width="100%" height="100%" fill="transparent"></rect>
<g transform="matrix(1 0 0 1 540 540)" id="2d831029-7c52-4772-85d0-2cc7e614e5d8"  >
</g>
<g transform="matrix(1 0 0 1 540 540)" id="d6168086-9d48-4895-8a10-8bb75ebf5a68"  >
<rect style="stroke: none; stroke-width: 1; stroke-dasharray: none; stroke-linecap: butt; stroke-dashoffset: 0; stroke-linejoin: miter; stroke-miterlimit: 4; fill: rgb(255,255,255); fill-rule: nonzero; opacity: 1; visibility: hidden;" vector-effect="non-scaling-stroke"  x="-540" y="-540" rx="0" ry="0" width="1080" height="1080" />
</g>
<g transform="matrix(0 0 0 0 0 0)"  >
<g style=""   >
</g>
</g>
<g transform="matrix(0 0 0 0 0 0)"  >
<g style=""   >
</g>
</g>
<g transform="matrix(0 0 0 0 0 0)"  >
<g style=""   >
</g>
</g>
<g transform="matrix(0 0 0 0 0 0)"  >
<g style=""   >
</g>
</g>
<g transform="matrix(0 0 0 0 0 0)"  >
<g style=""   >
</g>
</g>
<g transform="matrix(0 0 0 0 0 0)"  >
<g style=""   >
</g>
</g>
<g transform="matrix(0 0 0 0 0 0)"  >
<g style=""   >
</g>
</g>
<g transform="matrix(0 0 0 0 0 0)"  >
<g style=""   >
</g>
</g>
<g transform="matrix(0 0 0 0 0 0)"  >
<g style=""   >
</g>
</g>
<g transform="matrix(0 0 0 0 0 0)"  >
<g style=""   >
</g>
</g>
<g transform="matrix(0 0 0 0 0 0)"  >
<g style=""   >
</g>
</g>
<g transform="matrix(0 0 0 0 0 0)"  >
<g style=""   >
</g>
</g>
<g transform="matrix(0 0 0 0 0 0)"  >
<g style=""   >
</g>
</g>
<g transform="matrix(1 0 0 1 540 540)" id="path9-5"  >
<path style="stroke: rgb(0,0,0); stroke-width: 0; stroke-dasharray: none; stroke-linecap: butt; stroke-dashoffset: 0; stroke-linejoin: miter; stroke-miterlimit: 4; fill: rgb(251,150,56); fill-rule: nonzero; opacity: 1;" vector-effect="non-scaling-stroke"  transform=" translate(-256, -256)" d="M 111.79736 239.16397 C 111.16246 239.16397 118.76216 255.24887 118.97276 255.24887 C 135.56506 284.84540000000004 167.53896 303.24998 221.48906 308.32982000000004 C 213.78856 314.07560000000007 204.53956 324.98871 203.25655999999998 337.58374000000003 C 193.57735999999997 343.72849 174.10796 345.76339 158.97825999999998 341.07658000000004 C 137.76605999999998 334.49134000000004 129.64715999999999 293.23121000000003 97.89115699999998 299.11195000000004 C 91.02115699999997 300.37858000000006 92.38555699999998 304.83846000000005 98.32715699999999 308.62645000000003 C 108.01215999999998 314.77713000000006 117.11746 322.48216 124.13565999999999 338.88002000000006 C 129.54036 351.45873000000006 140.88655999999997 373.95387000000005 176.76876 373.95387000000005 C 190.99676 373.95387000000005 200.97696 372.26159000000007 200.97696 372.26159000000007 C 200.97696 372.26159000000007 201.24536 404.39878000000004 201.24536 416.88997000000006 C 201.24536 431.3078100000001 181.45406 435.36427000000003 181.45406 442.29212000000007 C 181.45406 445.03004000000004 188.01106 445.28960000000006 193.27036 445.28960000000006 C 203.67186 445.28960000000006 225.30966 436.7525100000001 225.30966 421.78145000000006 C 225.30966 409.8924200000001 225.50846 369.88407000000007 225.50846 362.88651000000004 C 225.50846 347.59657000000004 233.85136 342.74515 233.85136 342.74515 C 233.85136 342.74515 234.88356 424.41111 231.86236 435.36279 C 228.30725999999999 448.23071000000004 221.89545999999999 446.40346 221.89545999999999 452.14922 C 221.89545999999999 460.69669 247.94725999999997 454.23604 256.58376 435.48886 C 263.25345999999996 420.89749 260.33616 340.78143 260.33616 340.78143 L 267.45236 340.63312 C 267.45236 340.63312 267.85416 377.30731000000003 267.60656 394.08041000000003 C 267.35746 411.44232000000005 266.15606 433.39611 276.64796 443.74859000000004 C 283.54166000000004 450.55186000000003 305.87666 462.50913 305.87666 451.58562000000006 C 305.87666 445.2421300000001 293.63906000000003 440.03622000000007 293.63906000000003 422.87455000000006 L 293.63906000000003 343.87235000000004 C 303.41906 343.87235000000004 301.94776 369.83810000000005 301.94776 369.83810000000005 L 302.65816 418.11656000000005 C 302.65816 418.11656000000005 300.50316000000004 435.69797000000005 322.02096 443.04706000000004 C 329.61616 445.66929000000005 345.83606 446.35747000000003 346.60886 441.99252000000007 C 347.37706 437.60384000000005 327.05326 431.07792000000006 326.86646 417.4506200000001 C 326.74236 409.1567600000001 327.24906000000004 404.3068200000001 327.24906000000004 368.20810000000006 C 327.24906000000004 332.10789000000005 322.31016000000005 318.7712900000001 305.11876000000007 308.1414500000001 C 358.15226000000007 302.7916900000001 390.98946000000007 289.8881600000001 406.9809600000001 255.35863000000006 C 408.2238600000001 255.38393000000005 413.5038600000001 239.23071000000007 412.8156600000001 239.23071000000007 C 416.4019600000001 226.19222000000008 418.3567600000001 210.76732000000007 418.7187600000001 192.50809000000007 C 418.63076000000007 142.96894000000006 394.5164600000001 125.45722000000006 389.8845600000001 117.23754000000007 C 396.71296000000007 79.72981700000007 388.7379600000001 62.680847000000064 385.0375600000001 56.82235700000007 C 371.3671600000001 52.04656700000007 337.4931600000001 69.11481700000007 318.9729600000001 81.13140700000007 C 288.8158600000001 72.46972700000006 225.0293600000001 73.29584700000007 201.1089600000001 83.36652700000006 C 156.97746000000012 52.30760700000006 133.6249600000001 57.06855700000006 133.6249600000001 57.06855700000006 C 133.6249600000001 57.06855700000006 118.53526000000011 83.64537700000007 129.6381600000001 122.54133000000007 C 115.11966000000011 140.73381000000006 104.29396000000011 153.59729000000007 104.29396000000011 187.70857000000007 C 104.30796000000011 206.94966000000005 106.6105600000001 224.14841000000007 111.79736000000011 239.16397000000006 z" stroke-linecap="round" />
</g>
<g transform="matrix(NaN NaN NaN NaN 0 0)"  >
<g style=""   >
</g>
</g>
</svg>

<?xml version="1.0" ?>
<svg height="512" id="Layer_1" version="1.1" viewBox="0 0 512 512" width="512" xml:space="preserve" xmlns="http://www.w3.org/2000/svg">
  <defs id="defs12"/>
  <g id="g4680">
    <path d="m 111.79736,239.16397 c -0.6349,0 6.9648,16.0849 7.1754,16.0849 16.5923,29.59653 48.5662,48.00111 102.5163,53.08095 -7.7005,5.74578 -16.9495,16.65889 -18.2325,29.25392 -9.6792,6.14475 -29.1486,8.17965 -44.2783,3.49284 -21.2122,-6.58524 -29.3311,-47.84537 -61.087103,-41.96463 -6.87,1.26663 -5.5056,5.72651 0.436,9.5145 9.685003,6.15068 18.790303,13.85571 25.808503,30.25357 5.4047,12.57871 16.7509,35.07385 52.6331,35.07385 14.228,0 24.2082,-1.69228 24.2082,-1.69228 0,0 0.2684,32.13719 0.2684,44.62838 0,14.41784 -19.7913,18.4743 -19.7913,25.40215 0,2.73792 6.557,2.99748 11.8163,2.99748 10.4015,0 32.0393,-8.53709 32.0393,-23.50815 0,-11.88903 0.1988,-51.89738 0.1988,-58.89494 0,-15.28994 8.3429,-20.14136 8.3429,-20.14136 0,0 1.0322,81.66596 -1.989,92.61764 -3.5551,12.86792 -9.9669,11.04067 -9.9669,16.78643 0,8.54747 26.0518,2.08682 34.6883,-16.66036 6.6697,-14.59137 3.7524,-94.70743 3.7524,-94.70743 l 7.1162,-0.14831 c 0,0 0.4018,36.67419 0.1542,53.44729 -0.2491,17.36191 -1.4505,39.3157 9.0414,49.66818 6.8937,6.80327 29.2287,18.76054 29.2287,7.83703 0,-6.34349 -12.2376,-11.5494 -12.2376,-28.71107 v -79.0022 c 9.78,0 8.3087,25.96575 8.3087,25.96575 l 0.7104,48.27846 c 0,0 -2.155,17.58141 19.3628,24.9305 7.5952,2.62223 23.8151,3.31041 24.5879,-1.05454 0.7682,-4.38868 -19.5556,-10.9146 -19.7424,-24.5419 -0.1241,-8.29386 0.3826,-13.1438 0.3826,-49.24252 0,-36.10021 -4.9389,-49.43681 -22.1303,-60.06665 53.0335,-5.34976 85.8707,-18.25329 101.8622,-52.78282 1.2429,0.0253 6.5229,-16.12792 5.8347,-16.12792 3.5863,-13.03849 5.5411,-28.46339 5.9031,-46.72262 -0.088,-49.53915 -24.2023,-67.05087 -28.8342,-75.27055 6.8284,-37.507723 -1.1466,-54.556693 -4.847,-60.415183 -13.6704,-4.77579 -47.5444,12.29246 -66.0646,24.30905 -30.1571,-8.66168 -93.9436,-7.83556 -117.864,2.23512 -44.1315,-31.05892 -67.484,-26.29797 -67.484,-26.29797 0,0 -15.0897,26.57682 -3.9868,65.472773 -14.5185,18.19248 -25.3442,31.05596 -25.3442,65.16724 0.014,19.24109 2.3166,36.43984 7.5034,51.4554 z" id="path9-5" style="fill:#000000"/>
  </g>
</svg>
